packages/icons/brands/GitHub.svg

<svg width="24" height="24" viewBox="0 0 24 24" xmlns="http://www.w3.org/2000/svg">
<g>
        <g clip-path="url(#clip0_4039_39667)">
            <path
                fill-rule="evenodd"
                clip-rule="evenodd"
                d="M12 0.295898C5.37 0.295898 0 5.6659 0 12.2959C0 17.6059 3.435 22.0909 8.205 23.6809C8.805 23.7859 9.03 23.4259 9.03 23.1109C9.03 22.8259 9.015 21.8809 9.015 20.8759C6 21.4309 5.22 20.1409 4.98 19.4659C4.845 19.1209 4.26 18.0559 3.75 17.7709C3.33 17.5459 2.73 16.9909 3.735 16.9759C4.68 16.9609 5.355 17.8459 5.58 18.2059C6.66 20.0209 8.385 19.5109 9.075 19.1959C9.18 18.4159 9.495 17.8909 9.84 17.5909C7.17 17.2909 4.38 16.2559 4.38 11.6659C4.38 10.3609 4.845 9.2809 5.61 8.4409C5.49 8.1409 5.07 6.9109 5.73 5.2609C5.73 5.2609 6.735 4.9459 9.03 6.4909C9.99 6.2209 11.01 6.0859 12.03 6.0859C13.05 6.0859 14.07 6.2209 15.03 6.4909C17.325 4.9309 18.33 5.2609 18.33 5.2609C18.99 6.9109 18.57 8.1409 18.45 8.4409C19.215 9.2809 19.68 10.3459 19.68 11.6659C19.68 16.2709 16.875 17.2909 14.205 17.5909C14.64 17.9659 15.015 18.6859 15.015 19.8109C15.015 21.4159 15 22.7059 15 23.1109C15 23.4259 15.225 23.8009 15.825 23.6809C18.2072 22.8767 20.2773 21.3457 21.7438 19.3033C23.2103 17.261 23.9994 14.8102 24 12.2959C24 5.6659 18.63 0.295898 12 0.295898Z"
                fill="black"
            />
        </g>
        <defs>
            <clipPath id="clip0_4039_39667">
                <rect width="24" height="24" fill="white" transform="translate(0 0.295898)" />
            </clipPath>
        </defs>
    </g>
</svg>

<svg xmlns="http://www.w3.org/2000/svg" viewBox="0 0 24 24">
    <g clip-path="url(#GitHub_svg__a)">
        <path fill-rule="evenodd" d="M12 .296c-6.63 0-12 5.37-12 12 0 5.31 3.435 9.795 8.205 11.385.6.105.825-.255.825-.57 0-.285-.015-1.23-.015-2.235C6 21.43 5.22 20.14 4.98 19.466c-.135-.345-.72-1.41-1.23-1.695-.42-.225-1.02-.78-.015-.795.945-.015 1.62.87 1.845 1.23 1.08 1.815 2.805 1.305 3.495.99.105-.78.42-1.305.765-1.605-2.67-.3-5.46-1.335-5.46-5.925 0-1.305.465-2.385 1.23-3.225-.12-.3-.54-1.53.12-3.18 0 0 1.005-.315 3.3 1.23.96-.27 1.98-.405 3-.405s2.04.135 3 .405c2.295-1.56 3.3-1.23 3.3-1.23.66 1.65.24 2.88.12 3.18.765.84 1.23 1.905 1.23 3.225 0 4.605-2.805 5.625-5.475 5.925.435.375.81 1.095.81 2.22 0 1.605-.015 2.895-.015 3.3 0 .315.225.69.825.57A12.02 12.02 0 0 0 24 12.296c0-6.63-5.37-12-12-12Z" clip-rule="evenodd"/>
    </g>
    <defs>
        <clipPath id="GitHub_svg__a">
            <path fill="#fff" d="M0 0h24v24H0z" transform="translate(0 .296)"/>
        </clipPath>
    </defs>
</svg>
